X: 53
T:Murphy's Weather Eye (#163)
M:6/8
L:1/8
S:Clinton's Irish Melodies 1840
K:D
d/2e/2|fgf edc|fdB BAF|Add dcd|fee e2 d/2e/2|
fgf edc|fdB BAF|Add cde|fdd d2:|
|:A|FAA BAA|dAA BAG|FAd {f}dcd|fee e2 A|
FAA BAA|dAA BAG|FAd {f}ede|fdd d2:||

